X: 20544
Q: "With spirit."
M: 2/4
L: 1/16
K: G
d2d2 (agfe) | {e}d2(dB) G2(AB) |\
c2c2 (Bced) | c4 B2(Bc) |\
d2d2 e2e2 | ed^cd B2B2 |\
c2c2 F2F2 | A4 G2(AB) |
c2c2 A2A2 | BABc d2B2 |\
c2c2 A2A2 | BABc Hd2 G/A/B/c/ |\
d2d2 agfe | {e}d2(dB) G2(AB) |\
c2c2 GFEF | A4 G2 |]


